icons/1_Primary/Server-Eye.svg

<svg xmlns="http://www.w3.org/2000/svg" width="1024" height="1024" fill="none">
   <g clip-path="url(#a)">
      <path fill="#F8C18C" d="M512 1024c282.77 0 512-229.23 512-512S794.77 0 512 0 0 229.23 0 512s229.23 512 512 512Z"/>
      <path fill="#fff" d="M811 515c-3.11 4.69-7.5 6.43-15 6.43-12.69 0-17.41-8-17.41-13.25H842c.34-36.55-19.84-47.39-48-47.39s-45 14.21-45 39.5c0 26.78 17.3 39.63 47.63 39.63 13.37 0 23.18-2.41 30.56-6.69 7.38-4.28 12.22-10.31 14.41-18.21H811V515Zm-32.4-23.69c1.5-9.24 7.15-12.85 17.29-12.85 10.14 0 16.49 4.82 17.07 12.85H778.6ZM669.6 562c5.42.53 13.15 1.2 19.6 1.2 15.68 0 18.91-3.88 23.53-14.32l35.4-85.14h-30.22l-14 37.62-14-37.62h-30.12l29.29 67.34-1.61 4c-2.42 5.35-4.61 5.62-10.73 5.62a36.87 36.87 0 0 1-7.15-.4l.01 21.7Zm-42.2-47c-3.11 4.69-7.5 6.43-15 6.43-12.68 0-17.41-8-17.41-13.25h63.43c.35-36.55-19.84-47.39-48-47.39s-45 14.19-45 39.49c0 26.78 17.3 39.63 47.63 39.63 13.37 0 23.18-2.41 30.56-6.69 7.38-4.28 12.23-10.31 14.41-18.21h-30.63l.01-.01ZM595 491.32c1.5-9.24 7.15-12.85 17.3-12.85s16.49 4.82 17.07 12.85H595Zm-307.67-28.17c-21.81 0-35.9 15.21-35.9 38.74s14.09 38.74 35.9 38.74c11.32 0 25.65-6.44 31.93-24.52l.35-1h-13.83l-.19.48c-4.2 10.57-13.61 12.14-18.84 12.14-9.85 0-20.27-7.21-21.5-21h55.67v-2.53c0-30.27-17.35-41-33.59-41m-.58 12.9c10.6 0 18.31 7.09 20.27 18.57h-41.35c2-11.15 10.37-18.57 21.08-18.57ZM223.16 496C238 498.5 245 504.73 245 515.6c0 16.15-11.07 25-31.17 25S183.09 532 182 515.1v-.8h13.12v.75c0 6.52 4.82 13.49 18.33 13.49 16 0 17.75-7.25 17.75-10.37 0-4.44-1.77-7.29-10.81-8.75l-19.07-3c-8.25-1.4-17.05-7.29-17.05-19.61 0-14.83 10.61-23.68 28.39-23.68 18.51 0 29.29 8.73 30.36 24.58l.05.8H230v-.72c-.29-6.08-5-12.58-17.4-12.58-3.57 0-15.2.73-15.2 10.1 0 4.33 1.5 6.89 9.41 8.07l16.35 2.62Zm339.3-31.83v16.25l-1-.33a23.009 23.009 0 0 0-8-1.32c-11.69 0-18.67 8.44-18.67 22.58v36.84h-13.04v-72.6h13.07v11.13c6.22-11.14 14.37-13.57 20.29-13.57a20.352 20.352 0 0 1 6.81.85l.54.17Zm-84.59-1c-21.81 0-35.9 15.21-35.9 38.74s14.09 38.74 35.9 38.74c11.32 0 25.65-6.44 31.94-24.52l.35-1h-13.84l-.19.48c-4.2 10.57-13.61 12.14-18.84 12.14-9.85 0-20.27-7.21-21.5-21h55.67v-2.55c0-30.27-17.35-41-33.59-41m-.58 12.9c10.61 0 18.31 7.09 20.28 18.57h-41.35c2-11.15 10.37-18.57 21.08-18.57m-32.14-10.46-27.86 72.6h-13.77l-.19-.48-27.91-72.12h14.92l.19.49 20.09 54.24 19.95-54.73h14.58Zm-80.59-2.44a20.272 20.272 0 0 1 6.81.85l.53.17v16.25l-1-.32a23.009 23.009 0 0 0-8-1.32c-11.69 0-18.67 8.44-18.67 22.58v36.84H331.2v-72.66h13.07v11.13c6.22-11.15 14.37-13.57 20.29-13.57"/>
   </g>
   <defs>
      <clipPath id="a">
         <path fill="#fff" d="M0 0h1024v1024H0z"/>
      </clipPath>
   </defs>
</svg>

<svg width="1024" height="1024" viewBox="0 0 1024 1024" fill="none" xmlns="http://www.w3.org/2000/svg">
<g clip-path="url(#clip0_2_3447)">
<path d="M512 1024C794.77 1024 1024 794.77 1024 512C1024 229.23 794.77 0 512 0C229.23 0 0 229.23 0 512C0 794.77 229.23 1024 512 1024Z" fill="#F8C18C"/>
<path d="M811 515C807.89 519.69 803.5 521.43 796 521.43C783.31 521.43 778.59 513.43 778.59 508.18H842C842.34 471.63 822.16 460.79 794 460.79C765.84 460.79 749 475 749 500.29C749 527.07 766.3 539.92 796.63 539.92C810 539.92 819.81 537.51 827.19 533.23C834.57 528.95 839.41 522.92 841.6 515.02H811V515ZM778.6 491.31C780.1 482.07 785.75 478.46 795.89 478.46C806.03 478.46 812.38 483.28 812.96 491.31H778.6ZM669.6 562C675.02 562.53 682.75 563.2 689.2 563.2C704.88 563.2 708.11 559.32 712.73 548.88L748.13 463.74H717.91L703.91 501.36L689.91 463.74H659.79L689.08 531.08L687.47 535.08C685.05 540.43 682.86 540.7 676.74 540.7C674.349 540.799 671.955 540.665 669.59 540.3L669.6 562ZM627.4 515C624.29 519.69 619.9 521.43 612.4 521.43C599.72 521.43 594.99 513.43 594.99 508.18H658.42C658.77 471.63 638.58 460.79 610.42 460.79C582.26 460.79 565.42 474.98 565.42 500.28C565.42 527.06 582.72 539.91 613.05 539.91C626.42 539.91 636.23 537.5 643.61 533.22C650.99 528.94 655.84 522.91 658.02 515.01H627.39L627.4 515ZM595 491.32C596.5 482.08 602.15 478.47 612.3 478.47C622.45 478.47 628.79 483.29 629.37 491.32H595ZM287.33 463.15C265.52 463.15 251.43 478.36 251.43 501.89C251.43 525.42 265.52 540.63 287.33 540.63C298.65 540.63 312.98 534.19 319.26 516.11L319.61 515.11H305.78L305.59 515.59C301.39 526.16 291.98 527.73 286.75 527.73C276.9 527.73 266.48 520.52 265.25 506.73H320.92V504.2C320.92 473.93 303.57 463.2 287.33 463.2M286.75 476.1C297.35 476.1 305.06 483.19 307.02 494.67H265.67C267.67 483.52 276.04 476.1 286.75 476.1ZM223.16 496C238 498.5 245 504.73 245 515.6C245 531.75 233.93 540.6 213.83 540.6C193.73 540.6 183.09 532 182 515.1V514.3H195.12V515.05C195.12 521.57 199.94 528.54 213.45 528.54C229.45 528.54 231.2 521.29 231.2 518.17C231.2 513.73 229.43 510.88 220.39 509.42L201.32 506.42C193.07 505.02 184.27 499.13 184.27 486.81C184.27 471.98 194.88 463.13 212.66 463.13C231.17 463.13 241.95 471.86 243.02 487.71L243.07 488.51H230V487.79C229.71 481.71 225 475.21 212.6 475.21C209.03 475.21 197.4 475.94 197.4 485.31C197.4 489.64 198.9 492.2 206.81 493.38L223.16 496ZM562.46 464.17V480.42L561.46 480.09C558.893 479.18 556.184 478.733 553.46 478.77C541.77 478.77 534.79 487.21 534.79 501.35V538.19H521.75V465.59H534.82V476.72C541.04 465.58 549.19 463.15 555.11 463.15C557.412 463.046 559.714 463.333 561.92 464L562.46 464.17ZM477.87 463.17C456.06 463.17 441.97 478.38 441.97 501.91C441.97 525.44 456.06 540.65 477.87 540.65C489.19 540.65 503.52 534.21 509.81 516.13L510.16 515.13H496.32L496.13 515.61C491.93 526.18 482.52 527.75 477.29 527.75C467.44 527.75 457.02 520.54 455.79 506.75H511.46V504.2C511.46 473.93 494.11 463.2 477.87 463.2M477.29 476.1C487.9 476.1 495.6 483.19 497.57 494.67H456.22C458.22 483.52 466.59 476.1 477.3 476.1M445.16 465.64L417.3 538.24H403.53L403.34 537.76L375.43 465.64H390.35L390.54 466.13L410.63 520.37L430.58 465.64H445.16ZM364.57 463.2C366.872 463.094 369.175 463.382 371.38 464.05L371.91 464.22V480.47L370.91 480.15C368.343 479.24 365.634 478.793 362.91 478.83C351.22 478.83 344.24 487.27 344.24 501.41V538.25H331.2V465.59H344.27V476.72C350.49 465.57 358.64 463.15 364.56 463.15" fill="white"/>
</g>
<defs>
<clipPath id="clip0_2_3447">
<rect width="1024" height="1024" fill="white"/>
</clipPath>
</defs>
</svg>
